src/static/logos/shippable.svg

<?xml version="1.0" encoding="UTF-8" standalone="no"?>
<svg width="512px" height="118px" viewBox="0 0 512 118" version="1.1" xmlns="http://www.w3.org/2000/svg" xmlns:xlink="http://www.w3.org/1999/xlink" preserveAspectRatio="xMidYMid">
	<g>
		<path d="M0,68.8872727 L17.8734545,68.8872727 C18.0596364,72.4247273 19.3629091,75.0312727 21.7832727,76.7069091 C24.3898182,78.3825455 27.9272727,79.3134545 32.2094545,79.3134545 C35.3745455,79.3134545 37.9810909,78.7549091 40.4014545,77.4516364 C42.4494545,76.1483636 43.5665455,74.6589091 43.5665455,72.4247273 C43.5665455,69.2596364 39.8429091,66.8392727 32.5818182,65.3498182 C29.4167273,64.7912727 26.9963636,64.2327273 25.5069091,63.8603636 C16.1978182,61.6261818 10.0538182,58.8334545 6.88872727,55.6683636 C3.35127273,52.5032727 1.67563636,48.4072727 1.67563636,43.008 C1.67563636,36.3054545 4.28218182,30.9061818 9.30909091,26.4378182 C14.5221818,22.3418182 21.4109091,20.48 29.7890909,20.48 C38.912,20.48 46.1730909,22.528 51.5723636,26.4378182 C56.5992727,30.72 59.392,36.4916364 59.7643636,43.3803636 L48.5934545,43.3803636 C45.2421818,43.3803636 42.8218182,41.8909091 40.96,38.912 C40.2152727,38.1672727 39.4705455,37.6087273 38.912,36.864 C36.864,35.3745455 33.8850909,34.4436364 30.3476364,34.4436364 C26.8101818,34.4436364 24.2036364,35.0021818 22.528,35.9330909 C21.0385455,37.0501818 20.1076364,38.5396364 20.1076364,40.5876364 C20.1076364,43.3803636 24.576,45.8007273 33.6989091,47.6625455 C34.816,48.0349091 35.7469091,48.2210909 36.4916364,48.4072727 C37.2363636,48.5934545 37.9810909,48.5934545 38.7258182,48.5934545 C47.6625455,50.8276364 53.8065455,53.4341818 57.344,56.4130909 C60.6952727,59.5781818 62.3709091,63.6741818 62.3709091,69.0734545 C62.3709091,76.7069091 59.5781818,82.6647273 53.9927273,86.9469091 C48.7796364,90.8567273 40.96,92.7185455 30.3476364,92.7185455 C20.48,92.7185455 13.0327273,90.6705455 8.00581818,86.7607273 C2.97890909,82.6647273 0.372363636,76.8930909 0.372363636,69.2596364 L0.372363636,68.8872727 L0,68.8872727 Z M108.916364,41.8909091 C106.309818,38.1672727 102.772364,36.3054545 98.1178182,36.3054545 C93.2770909,36.3054545 89.5534545,37.9810909 86.9469091,41.5185455 C84.3403636,45.056 83.0370909,49.8967273 83.0370909,55.8545455 L83.0370909,91.9738182 L65.1636364,91.9738182 L65.1636364,1.86181818 L74.1003636,1.86181818 C76.5207273,1.86181818 78.5687273,2.79272727 80.4305455,4.46836364 C82.1061818,6.144 83.0370909,8.37818182 83.0370909,10.7985455 L83.0370909,31.4647273 C86.2021818,26.2516364 90.6705455,22.9003636 96.4421818,21.5970909 C102.213818,20.2938182 107.613091,20.48 113.012364,22.7141818 C117.853091,24.7621818 121.949091,28.1134545 125.300364,32.5818182 C128.651636,37.0501818 130.327273,43.3803636 130.327273,51.3861818 L130.327273,91.9738182 L112.826182,91.9738182 L112.826182,55.8545455 C112.826182,53.248 112.64,50.8276364 112.081455,48.5934545 C111.522909,46.5454545 110.405818,44.3112727 108.916364,41.8909091 Z M134.050909,22.3418182 L143.546182,22.3418182 C145.966545,22.3418182 148.014545,23.2727273 149.876364,24.9483636 C151.552,26.624 152.482909,28.8581818 152.482909,31.2785455 L152.482909,91.9738182 L134.237091,91.9738182 L134.237091,22.3418182 L134.050909,22.3418182 Z M174.266182,108.357818 C174.266182,110.778182 173.335273,112.826182 171.659636,114.688 C169.984,116.363636 167.749818,117.294545 165.329455,117.294545 L156.392727,117.294545 L156.392727,52.1309091 C156.392727,39.8429091 159.930182,31.6509091 167.191273,27.1825455 C174.266182,22.7141818 182.085818,20.48 190.464,20.48 C194.746182,20.48 199.214545,21.2247273 203.682909,22.9003636 C208.151273,24.576 211.688727,26.9963636 214.295273,30.1614545 C219.508364,37.0501818 222.114909,45.6145455 222.114909,56.4130909 C222.114909,67.3978182 219.508364,76.3345455 214.295273,83.0370909 C209.082182,89.7396364 202.379636,92.9047273 194.187636,92.9047273 C189.905455,92.9047273 185.995636,92.16 182.644364,90.4843636 C179.106909,88.8087273 176.314182,86.016 174.266182,82.2923636 L174.266182,108.357818 L174.266182,108.357818 Z M204.241455,56.9716364 C204.241455,50.0829091 202.938182,44.8698182 200.331636,41.3323636 C197.725091,37.6087273 194.001455,35.7469091 189.160727,35.7469091 C184.506182,35.7469091 180.782545,37.6087273 178.176,41.3323636 C175.755636,44.6836364 174.452364,49.8967273 174.452364,56.9716364 C174.452364,63.6741818 175.755636,68.5149091 178.362182,71.8661818 C180.968727,75.5898182 184.692364,77.4516364 189.533091,77.4516364 C194.001455,77.4516364 197.725091,75.5898182 200.331636,71.8661818 C202.938182,68.3287273 204.241455,63.3018182 204.241455,56.9716364 Z M243.153455,108.357818 C243.153455,110.778182 242.222545,112.826182 240.546909,114.688 C238.871273,116.363636 236.637091,117.294545 234.216727,117.294545 L225.28,117.294545 L225.28,52.1309091 C225.28,39.8429091 228.817455,31.6509091 236.078545,27.1825455 C243.153455,22.7141818 250.973091,20.48 259.351273,20.48 C263.633455,20.48 268.101818,21.2247273 272.570182,22.9003636 C277.038545,24.576 280.576,26.9963636 283.182545,30.1614545 C288.395636,37.0501818 291.002182,45.6145455 291.002182,56.4130909 C291.002182,67.3978182 288.395636,76.3345455 283.182545,83.0370909 C277.969455,89.7396364 271.266909,92.9047273 263.074909,92.9047273 C258.792727,92.9047273 254.882909,92.16 251.531636,90.4843636 C247.994182,88.8087273 245.201455,86.016 243.153455,82.2923636 L243.153455,108.357818 L243.153455,108.357818 Z M272.942545,56.9716364 C272.942545,50.0829091 271.639273,44.8698182 269.032727,41.3323636 C266.426182,37.6087273 262.702545,35.7469091 257.861818,35.7469091 C253.207273,35.7469091 249.483636,37.6087273 246.877091,41.3323636 C244.456727,44.6836364 243.153455,49.8967273 243.153455,56.9716364 C243.153455,63.6741818 244.456727,68.5149091 247.063273,71.8661818 C249.669818,75.5898182 253.393455,77.4516364 258.234182,77.4516364 C262.702545,77.4516364 266.426182,75.5898182 269.032727,71.8661818 C271.639273,68.3287273 272.942545,63.3018182 272.942545,56.9716364 Z M338.478545,88.6225455 C334.754909,90.4843636 330.845091,91.7876364 326.749091,92.16 C322.653091,92.5323636 319.115636,92.9047273 315.950545,92.9047273 C309.620364,92.9047273 304.221091,91.2290909 299.380364,87.8778182 C294.725818,84.5265455 292.305455,78.7549091 292.305455,70.9352727 C292.305455,63.6741818 294.353455,58.2749091 298.635636,55.296 C302.917818,52.1309091 308.317091,50.0829091 315.019636,48.9658182 C315.950545,48.9658182 316.881455,48.7796364 318.184727,48.5934545 C319.488,48.4072727 320.791273,48.0349091 322.466909,47.8487273 C330.100364,46.7316364 334.010182,44.4974545 334.010182,40.96 C334.010182,38.3534545 332.706909,36.6778182 329.914182,35.9330909 C327.121455,35.1883636 324.701091,34.816 322.466909,34.816 C320.046545,34.816 317.812364,35.1883636 315.950545,35.9330909 C314.088727,36.6778182 312.599273,37.9810909 311.668364,39.8429091 L294.167273,39.8429091 C294.912,34.4436364 297.332364,29.9752727 301.428364,26.4378182 C306.082909,22.3418182 312.785455,20.48 321.536,20.48 C331.217455,20.48 338.664727,22.1556364 343.505455,25.5069091 C348.532364,29.0443636 351.138909,33.8850909 351.138909,40.2152727 L351.138909,64.0465455 C351.138909,71.1214545 349.835636,76.5207273 347.415273,80.4305455 C344.994909,83.968 342.016,86.7607273 338.478545,88.6225455 Z M334.382545,56.4130909 C331.962182,57.7163636 328.610909,58.8334545 324.142545,59.7643636 L318.184727,61.0676364 C315.019636,61.9985455 312.785455,63.1156364 311.296,64.4189091 C309.992727,66.2807273 309.434182,68.3287273 309.434182,70.1905455 C309.434182,72.7970909 310.178909,74.8450909 311.854545,76.5207273 C313.344,78.0101818 315.764364,78.5687273 318.743273,78.5687273 C323.584,78.5687273 327.493818,77.2654545 330.286545,74.2865455 C333.079273,71.4938182 334.568727,67.584 334.568727,62.7432727 L334.568727,56.4130909 L334.382545,56.4130909 Z M373.480727,8.93672727 L373.480727,29.9752727 C375.342545,26.624 378.135273,24.0174545 381.858909,21.7832727 C385.024,20.1076364 388.747636,19.1767273 393.402182,19.1767273 C401.594182,19.1767273 408.296727,22.528 413.509818,29.4167273 C418.722909,36.3054545 421.329455,45.056 421.329455,55.8545455 C421.329455,66.6530909 418.722909,75.4036364 413.509818,82.2923636 C410.903273,85.6436364 407.365818,88.064 402.897455,89.5534545 C398.429091,91.0429091 393.960727,91.7876364 389.678545,91.7876364 C381.300364,91.7876364 373.480727,89.5534545 366.405818,85.2712727 C359.330909,80.9890909 355.607273,72.6109091 355.607273,60.1367273 L355.607273,0 L364.544,0 C366.964364,0 369.012364,0.930909091 370.874182,2.60654545 C372.549818,4.28218182 373.480727,6.51636364 373.480727,8.93672727 Z M403.269818,54.9236364 C403.269818,48.5934545 401.966545,43.7527273 399.36,40.2152727 C396.753455,36.4916364 393.216,34.6298182 388.561455,34.6298182 C383.720727,34.6298182 379.997091,36.3054545 377.390545,39.8429091 C374.784,43.5665455 373.480727,48.4072727 373.480727,54.7374545 C373.480727,61.9985455 374.784,67.3978182 377.204364,70.7490909 C379.810909,74.4727273 383.534545,76.3345455 388.189091,76.3345455 C393.029818,76.3345455 396.753455,74.4727273 399.36,70.7490909 C401.966545,67.2116364 403.269818,61.9985455 403.269818,54.9236364 Z M424.494545,1.86181818 L433.989818,1.86181818 C436.410182,1.86181818 438.458182,2.60654545 440.32,4.28218182 C441.995636,5.95781818 442.926545,8.00581818 442.926545,10.4261818 L442.926545,91.9738182 L424.680727,91.9738182 L424.680727,1.86181818 L424.494545,1.86181818 Z M496.919273,70.3767273 L509.952,70.3767273 C508.090182,77.6378182 504.366545,83.2232727 498.967273,87.1330909 C493.568,91.2290909 486.679273,93.0909091 478.487273,93.0909091 C468.619636,93.0909091 460.8,89.9258182 455.214545,83.4094545 C449.629091,77.0792727 446.836364,68.1425455 446.836364,56.4130909 C446.836364,45.2421818 449.629091,36.4916364 455.028364,30.1614545 C460.613818,23.6450909 468.433455,20.48 478.301091,20.48 C488.727273,20.48 496.919273,23.6450909 502.690909,29.9752727 C508.276364,36.4916364 511.069091,45.4283636 511.069091,56.9716364 L511.069091,58.8334545 L511.069091,59.9505455 C511.069091,60.8814545 511.069091,61.44 510.882909,61.8123636 L465.640727,61.8123636 C465.826909,67.2116364 467.130182,71.3076364 469.550545,73.9141818 C471.784727,76.7069091 475.136,78.1963636 479.790545,78.1963636 C482.769455,78.1963636 485.376,77.6378182 487.424,76.3345455 C487.982545,76.1483636 488.354909,75.776 488.913455,75.4036364 C489.285818,75.0312727 489.844364,74.4727273 490.402909,73.9141818 C490.589091,73.3556364 491.147636,72.6109091 492.450909,71.8661818 C493.195636,70.7490909 494.871273,70.3767273 496.919273,70.3767273 Z M465.454545,49.8967273 L492.078545,49.8967273 C491.706182,45.2421818 490.589091,41.7047273 488.354909,39.4705455 C486.120727,37.0501818 482.769455,35.7469091 478.673455,35.7469091 C474.763636,35.7469091 471.598545,37.0501818 469.178182,39.4705455 C466.944,41.8909091 465.640727,45.4283636 465.454545,49.8967273 Z" fill="#B64326"></path>
		<path d="M134.050909,1.86181818 L143.546182,1.86181818 C145.966545,1.86181818 148.014545,2.79272727 149.876364,4.46836364 C151.552,6.144 152.482909,8.37818182 152.482909,10.7985455 L152.482909,16.384 L134.237091,16.384 L134.237091,1.86181818 L134.050909,1.86181818 Z" fill="#3A3A3C"></path>
	</g>
</svg>

<svg width="512" height="118" xmlns="http://www.w3.org/2000/svg" preserveAspectRatio="xMidYMid"><path d="M0 68.887h17.873c.187 3.538 1.49 6.144 3.91 7.82 2.607 1.676 6.144 2.606 10.426 2.606 3.166 0 5.772-.558 8.192-1.861 2.048-1.304 3.166-2.793 3.166-5.027 0-3.165-3.724-5.586-10.985-7.075a103.684 103.684 0 01-7.075-1.49c-9.31-2.234-15.453-5.027-18.618-8.192-3.538-3.165-5.213-7.26-5.213-12.66 0-6.703 2.606-12.102 7.633-16.57 5.213-4.096 12.102-5.958 20.48-5.958 9.123 0 16.384 2.048 21.783 5.958 5.027 4.282 7.82 10.054 8.192 16.942h-11.17c-3.352 0-5.772-1.49-7.634-4.468-.745-.745-1.49-1.303-2.048-2.048-2.048-1.49-5.027-2.42-8.564-2.42-3.538 0-6.144.558-7.82 1.49-1.49 1.116-2.42 2.606-2.42 4.654 0 2.792 4.468 5.213 13.59 7.075 1.118.372 2.049.558 2.794.744.744.186 1.49.186 2.234.186 8.937 2.235 15.08 4.841 18.618 7.82 3.351 3.165 5.027 7.261 5.027 12.66 0 7.634-2.793 13.592-8.378 17.874-5.213 3.91-13.033 5.772-23.645 5.772-9.868 0-17.315-2.048-22.342-5.958C2.979 82.665.372 76.893.372 69.26v-.373H0zm108.916-26.996c-2.606-3.724-6.144-5.586-10.798-5.586-4.84 0-8.565 1.676-11.171 5.214-2.607 3.537-3.91 8.378-3.91 14.336v36.119H65.164V1.862H74.1c2.42 0 4.469.93 6.33 2.606 1.676 1.676 2.607 3.91 2.607 6.33v20.667c3.165-5.213 7.634-8.565 13.405-9.868 5.772-1.303 11.171-1.117 16.57 1.117 4.841 2.048 8.937 5.4 12.288 9.868 3.352 4.468 5.027 10.798 5.027 18.804v40.588h-17.5v-36.12c0-2.606-.187-5.026-.746-7.26-.558-2.049-1.675-4.283-3.165-6.703zm25.135-19.55h9.495c2.42 0 4.469.932 6.33 2.607 1.676 1.676 2.607 3.91 2.607 6.33v60.696h-18.246V22.342h-.186zm40.215 86.017c0 2.42-.93 4.468-2.606 6.33-1.676 1.676-3.91 2.607-6.33 2.607h-8.937V52.13c0-12.288 3.537-20.48 10.798-24.948 7.075-4.469 14.895-6.703 23.273-6.703 4.282 0 8.75.745 13.219 2.42 4.468 1.676 8.006 4.096 10.612 7.261 5.213 6.89 7.82 15.454 7.82 26.252 0 10.985-2.607 19.922-7.82 26.624-5.213 6.703-11.915 9.868-20.107 9.868-4.283 0-8.192-.745-11.544-2.42-3.537-1.676-6.33-4.469-8.378-8.193v26.066zm29.975-51.386c0-6.89-1.303-12.102-3.91-15.64-2.606-3.723-6.33-5.585-11.17-5.585-4.655 0-8.378 1.862-10.985 5.585-2.42 3.352-3.724 8.565-3.724 15.64 0 6.702 1.304 11.543 3.91 14.894 2.607 3.724 6.33 5.586 11.171 5.586 4.468 0 8.192-1.862 10.799-5.586 2.606-3.537 3.91-8.564 3.91-14.894zm38.912 51.386c0 2.42-.93 4.468-2.606 6.33-1.676 1.676-3.91 2.607-6.33 2.607h-8.937V52.13c0-12.288 3.537-20.48 10.799-24.948 7.074-4.469 14.894-6.703 23.272-6.703 4.282 0 8.75.745 13.22 2.42 4.468 1.676 8.005 4.096 10.612 7.261 5.213 6.89 7.82 15.454 7.82 26.252 0 10.985-2.607 19.922-7.82 26.624-5.214 6.703-11.916 9.868-20.108 9.868-4.282 0-8.192-.745-11.543-2.42-3.538-1.676-6.33-4.469-8.379-8.193v26.066zm29.79-51.386c0-6.89-1.304-12.102-3.91-15.64-2.607-3.723-6.33-5.585-11.171-5.585-4.655 0-8.378 1.862-10.985 5.585-2.42 3.352-3.724 8.565-3.724 15.64 0 6.702 1.304 11.543 3.91 14.894 2.607 3.724 6.33 5.586 11.171 5.586 4.469 0 8.192-1.862 10.799-5.586 2.606-3.537 3.91-8.564 3.91-14.894zm65.536 31.65c-3.724 1.862-7.634 3.166-11.73 3.538-4.096.372-7.633.745-10.798.745-6.33 0-11.73-1.676-16.57-5.027-4.655-3.351-7.076-9.123-7.076-16.943 0-7.26 2.048-12.66 6.33-15.639 4.283-3.165 9.682-5.213 16.385-6.33.93 0 1.861-.186 3.165-.373 1.303-.186 2.606-.558 4.282-.744 7.633-1.117 11.543-3.352 11.543-6.889 0-2.607-1.303-4.282-4.096-5.027-2.793-.745-5.213-1.117-7.447-1.117-2.42 0-4.655.372-6.516 1.117-1.862.745-3.352 2.048-4.283 3.91h-17.5c.744-5.4 3.164-9.868 7.26-13.405 4.655-4.096 11.357-5.958 20.108-5.958 9.681 0 17.129 1.676 21.97 5.027 5.026 3.537 7.633 8.378 7.633 14.708v23.832c0 7.074-1.303 12.474-3.724 16.384-2.42 3.537-5.399 6.33-8.936 8.192zm-4.096-32.209c-2.42 1.303-5.772 2.42-10.24 3.351l-5.958 1.304c-3.165.93-5.4 2.048-6.889 3.35-1.303 1.863-1.862 3.91-1.862 5.773 0 2.606.745 4.654 2.42 6.33 1.49 1.49 3.91 2.048 6.89 2.048 4.84 0 8.75-1.304 11.543-4.282 2.792-2.793 4.282-6.703 4.282-11.544v-6.33h-.186zM373.48 8.937v21.038c1.862-3.351 4.654-5.958 8.378-8.192 3.165-1.675 6.889-2.606 11.543-2.606 8.192 0 14.895 3.351 20.108 10.24 5.213 6.888 7.82 15.639 7.82 26.438 0 10.798-2.607 19.549-7.82 26.437-2.607 3.352-6.144 5.772-10.613 7.261-4.468 1.49-8.936 2.235-13.218 2.235-8.379 0-16.198-2.235-23.273-6.517-7.075-4.282-10.799-12.66-10.799-25.134V0h8.937c2.42 0 4.468.93 6.33 2.607 1.676 1.675 2.607 3.91 2.607 6.33zm29.789 45.987c0-6.33-1.303-11.171-3.91-14.709-2.607-3.723-6.144-5.585-10.799-5.585-4.84 0-8.564 1.675-11.17 5.213-2.607 3.724-3.91 8.564-3.91 14.894 0 7.262 1.303 12.66 3.723 16.012 2.607 3.724 6.33 5.586 10.985 5.586 4.84 0 8.564-1.862 11.171-5.586 2.607-3.537 3.91-8.75 3.91-15.825zm21.225-53.062h9.495c2.42 0 4.468.745 6.33 2.42 1.676 1.676 2.607 3.724 2.607 6.144v81.548H424.68V1.862h-.186zm72.424 68.515h13.033c-1.862 7.26-5.585 12.846-10.985 16.756-5.399 4.096-12.288 5.958-20.48 5.958-9.867 0-17.687-3.165-23.272-9.682-5.586-6.33-8.379-15.266-8.379-26.996 0-11.17 2.793-19.921 8.192-26.252 5.586-6.516 13.405-9.681 23.273-9.681 10.426 0 18.618 3.165 24.39 9.495 5.585 6.517 8.378 15.453 8.378 26.997v2.979c0 .93 0 1.489-.186 1.861H465.64c.186 5.4 1.49 9.496 3.91 12.102 2.234 2.793 5.585 4.282 10.24 4.282 2.978 0 5.585-.558 7.633-1.861.559-.187.93-.559 1.49-.931l1.489-1.49c.186-.558.745-1.303 2.048-2.048.745-1.117 2.42-1.49 4.468-1.49zm-31.464-20.48h26.624c-.373-4.655-1.49-8.192-3.724-10.426-2.234-2.42-5.586-3.724-9.682-3.724-3.91 0-7.074 1.303-9.495 3.724-2.234 2.42-3.537 5.957-3.723 10.426z" fill="#B64326"/><path d="M134.05 1.862h9.496c2.42 0 4.469.93 6.33 2.606 1.676 1.676 2.607 3.91 2.607 6.33v5.586h-18.246V1.862h-.186z" fill="#3A3A3C"/></svg>
